resources/svg/print.svg

<svg viewBox="0 0 24 24"><path fill="none" stroke="currentColor" stroke-width="2" d="M6 19H1V7h22v12h-5M3 16h18M6 16v7h12v-7m0-9V1H6v6h0m11 5h2v-1h-2v1z"/></svg>

<svg xmlns="http://www.w3.org/2000/svg" viewBox="0 0 24 24" fill="currentColor"><path fill="none" stroke="currentColor" stroke-width="2" d="M6,19 L1,19 L1,7 L23,7 L23,19 L18,19 M3,16 L21,16 M6,16 L6,23 L6,23 L18,23 L18,16 M18,7 L18,1 L6,1 L6,7 L6,7 M17,12 L19,12 L19,11 L17,11 L17,12 Z"/></svg>
